X:352
T:
R:polska
S:Efter Klockaren Veström i Vallstena.
O:Gotland, Vallstena
M:3/4
L:1/16
K:D
DEFG [F2A2][F2A2] [F2A2][F2A2]|cBAG [F2A2][F2A2] [F2A2][F2A2]|
FGAB cBAG F4|GFED E2A,2 A,2A,2|DEFG [F2A2][F2A2] [F2A2][F2A2]|
cBAG [F2A2][F2A2] [F2A2][F2A2]|GFGA BcBA G2F2|FEFD E2A,2 D4::
D2FA Ld4 Le4|f2D2 g2g2 f4|g2g2 agfe gfed |cdef dcdA GFED|
A,2A,2 d2d2 e2e2|f2D2 g2g2 f4|g2g2 bgeg afdf|gedc [c4e4] d4:|

